X: 34888
T: Robin's Nest, The
R: jig
M: 6/8
K: Cmajor
|:EG|cdc (3Bcd B|cGE CEG|FEF edc|(3Bcd B GAB|
cdc (3Bcd B|cGE CDE|FEF edc|BAB c:|
|:EG|cBc ece|ga^f g2 =f|ece dBG|cGE FED|
cBc ece|ga^f g2 =f|ece dcB|GAB c:|

